X:8258
T:Sinclair-visa
C:anon., words: E. Storm
O:Faeroe Islands
Z:Transcribed by Eric Forgeot
F:http://abc.musicaviva.com/tunes/faeroe/sinclair-dm/sinclair-dm-1.abc
%Posted November 1st 2001 at abcusers by Eric Forgeot.
D:Folque
M:C
L:1/8
Q:1/4=130
K:Dm
F2 | "Dm"F2 (FE)D2 DA | "F"A2 (AG) "Dm"F3G | "F"AA A2 "Gm"G2 FF |
"C"EE G2 "Bb"F2"A"E2 | [M:6/4] "Dm"D2 AA "F"A2 (AG) "Dm"F3G |
[M:C] "F"AAA2 "Gm"GGF2 |
 [M:6/4] "C"EED2 "Bb"Fz D2 "A"^C3D | [M:C]"Dm" DA A2 "F"AGF2 |
"A7"E4 "Dm"D2 :|
W:
W:Herr Sinclar drog over salten Hav,
W:Til Norrig hans Cours monne stande ;
W:Blandt Gudbrands Klipper han fandt sin Grav,
W:Der vanked s\aa blodig en Pande.
W:- Vel op f\or Dag
W:De kommer vel over den Hede -
W:
W:
W:  From Musica Viva - http://www.musicaviva.com
W:  the Internet center for free sheet music downloads.

